svg/600/sharp/health_metrics-fill.svg

<svg xmlns="http://www.w3.org/2000/svg" width="48" height="48" viewBox="0 -960 960 960"><path d="M260.782-69.26v-191.522H69.26v-181.305h275.92l95.473 123.261h13.696l77.348-199.478 59.391 76.217h300.218v181.305H699.784V-69.26H260.782Zm172.914-367.35-58.826-76.217H69.26v-186.958h191.522v-191.521h439.002v191.521h191.521v186.958H620.261l-94.957-124.826H511.74L433.696-436.61Z"/></svg>

<svg xmlns="http://www.w3.org/2000/svg" width="48" height="48" viewBox="0 -960 960 960"><path d="M260.78-69.26v-191.52H69.26v-181.31h275.92l95.47 123.26h13.7L531.7-518.3l59.39 76.21H891.3v181.31H699.78v191.52h-439ZM433.7-436.61l-58.83-76.22H69.26v-186.95h191.52V-891.3h439v191.52H891.3v186.95H620.26L525.3-637.65h-13.56L433.7-436.61Z"/></svg>
